storage/app/icons/tabler/filled/globe.svg

<!--
version: "2.30"
unicode: "fc2f"
-->
<svg
  xmlns="http://www.w3.org/2000/svg"
  width="24"
  height="24"
  viewBox="0 0 24 24"
  fill="currentColor"
>
  <path d="M11 4a5 5 0 1 1 -4.995 5.217l-.005 -.217l.005 -.217a5 5 0 0 1 4.995 -4.783z" />
  <path d="M14.133 1.502a1 1 0 0 1 1.365 -.369a9.015 9.015 0 1 1 -10.404 14.622a1 1 0 1 1 1.312 -1.51a7.015 7.015 0 1 0 8.096 -11.378a1 1 0 0 1 -.369 -1.365z" />
  <path d="M11 16a1 1 0 0 1 .993 .883l.007 .117v4a1 1 0 0 1 -1.993 .117l-.007 -.117v-4a1 1 0 0 1 1 -1z" />
  <path d="M15 20a1 1 0 0 1 .117 1.993l-.117 .007h-8a1 1 0 0 1 -.117 -1.993l.117 -.007h8z" />
</svg>

<svg xmlns="http://www.w3.org/2000/svg" width="24" height="24" fill="currentColor" viewBox="0 0 24 24"><path d="M11 4a5 5 0 1 1-4.995 5.217L6 9l.005-.217A5 5 0 0 1 11 4"/><path d="M14.133 1.502a1 1 0 0 1 1.365-.369A9.015 9.015 0 1 1 5.094 15.755a1 1 0 1 1 1.312-1.51 7.015 7.015 0 1 0 8.096-11.378 1 1 0 0 1-.369-1.365"/><path d="M11 16a1 1 0 0 1 .993.883L12 17v4a1 1 0 0 1-1.993.117L10 21v-4a1 1 0 0 1 1-1"/><path d="M15 20a1 1 0 0 1 .117 1.993L15 22H7a1 1 0 0 1-.117-1.993L7 20z"/></svg>
